X:1
T:Title
%%score { 1 | ( 2 3 ) }
L:1/8
Q:1/4=108
M:4/4
K:F
V:1 treble nm="Grand Piano"
V:2 bass 
V:3 bass 
V:1
 A2 AG F2 [EG]2 | A2 B2 c4 | d2 c2 A2 [CF]2 | [CFA]4 [CEG]4 | [CFA]2 [CFA][CG] [A,CF]2 [CEG]2 | %5
w: Hubert~P.~Main * * * *|||||
 A2 B2 c4 | d2 c2 A2 [CF]2 | [B,EG]4 [A,F]4 | [CFA]2 [CGB]2 [Ac]2 [Ac]2 | A2 B2 c4 | %10
w: |||||
 [B,FB]2 [CFA]2 [Fd]2 [CFc]2 | .[CGc]2 [CFA]2 [CEG]4 | [CFA]2 [CGB]2 [Ac]2 [Ac]2 | A2 B2 c4 | %14
w: ||||
 d2 c2 A2 [CF]2 | [B,EG]4 [A,F]4 |] %16
w: ||
V:2
 [F,CF]2 [CF][B,C] [F,A,C]2 [C,C]2 | [F,CF]2 [F,G,F]2 [F,A,F]4 | %2
 [B,F]2 [A,CF]2[K:bass] [F,CF]2 A,,2 | C,4 C,4 | F,2 z B, F,2 C,2 | [F,CF]2 [F,G,F]2 [F,A,F]4 | %6
 [B,F]2 [A,CF]2[K:bass] [F,CF]2 A,,2 | C,4 F,4 | F,2 F,2 [F,F]2 [F,F]2 | %9
 [F,CF]2 [F,G,F]2 [F,A,F]4 | D,2 F,2 B,2 A,2 | z[K:treble] B[K:bass] F,2 C,4 | %12
 F,2 F,2 [F,F]2[K:treble] [F,F]2 | [F,CF]2 [F,G,F]2 [F,A,F]4 | %14
 [B,F]2 [A,CF]2[K:bass] [F,CF]2 A,,2 | C,4 F,4 |] %16
V:3
 z2 F,2 z4 | x8 | x4[K:bass] x4 | x8 | z2 F,2 z4 | x8 | x4[K:bass] x4 | x8 | x8 | x8 | x8 | %11
 E,2[K:treble][K:bass] z2 z4 | x6[K:treble] x2 | x8 | x4[K:bass] x4 | x8 |] %16

